X:20
T:White Cockade,The. TJD.20
M:C
L:1/4
Q:1/4=140
S:T.J.Dixon MS1, Lincolnshire, 1798
R:Scots measure
N:Bar line 6 added
A:Lincolnshire, Holton le Moor
Z:vmp.R.Greig2010
K:G
(G/A/)|BBB (A/G/)|BBBg|dBAG|!
(FG/A/)Dz|BBB (A/G/)|Bdga|b/a/g/f/ e/f/g/f/|!
dBB::(B/c/)|dBgB|dBB(B/c/)|dBgB|!
aAA (G/A/)|BBB (AG)|Bdg>a|b/a/g/f/ e/f/”_bar line added”g/e/| dBB:|]

